X:1456
L:1/8
M:4/4
K:F
 AB | (cf).e.d (cA){A} GF | B2 d2 c2 (fe) | dcBA GFEF |{F} A2 G2 G2 .A.B | cf ed cA GF | 
 BABc d2 ed | cA{A} GF{F} G2 .F.G |{F} A2 F2 F2 || z B | ABcA B d2 c | =BcdB c e2 d | 
 ^cd(.e.f) .e.d.=c.B |{C} A2{FA} G2 F2 ||

